.local/share/icons/Gruvbox-Plus-Dark/mimetypes/scalable/application-x-clementine.svg

<svg width="256" height="256" viewBox="0 0 256 256" fill="none" xmlns="http://www.w3.org/2000/svg">
<g opacity="0.4" filter="url(#filter0_f)">
<path d="M55.0839 15.5636H155.608L216.009 75.7129L216.011 224.609C216.011 233.52 208.749 240.737 199.838 240.737H55.0838C46.1734 240.737 39 233.564 39 224.654V31.6474C39 22.737 46.1734 15.5636 55.0838 15.5636H55.0839Z" fill="#282828"/>
</g>
<path d="M55.0839 15H155.608L216.009 75.1493L216.011 224.045C216.011 232.956 208.749 240.174 199.838 240.174H55.0838C46.1734 240.174 39 233 39 224.09V31.0838C39 22.1734 46.1734 15 55.0838 15H55.0839Z" fill="#ebdbb2"/>
<path opacity="0.2" d="M55.0839 15H155.608L216.009 75.1493L216.011 224.045C216.011 232.956 208.749 240.174 199.838 240.174H55.0838C46.1734 240.174 39 233 39 224.09V31.0838C39 22.1734 46.1734 15 55.0838 15H55.0839Z" fill="url(#paint0_linear)"/>
<path fill-rule="evenodd" clip-rule="evenodd" d="M155.609 22.9787H55.0839C50.58 22.9787 46.9787 26.5799 46.9787 31.0838V224.09C46.9787 228.594 50.5799 232.195 55.0838 232.195H199.838C204.371 232.195 208.032 228.521 208.032 224.046V75.1493L155.609 22.9787ZM155.608 15H55.0839C46.1735 15 39 22.1734 39 31.0838V224.09C39 233 46.1734 240.174 55.0838 240.174H199.838C208.749 240.174 216.011 232.956 216.011 224.045L216.009 75.1493L155.608 15Z" fill="url(#paint1_linear)"/>
<path d="M128 68C94.8625 68 68 94.8633 68 128C68 161.137 94.8633 188 128 188C161.137 188 188 161.137 188 128C188 120.121 186.448 112.318 183.433 105.039C180.418 97.7591 175.998 91.1447 170.427 85.5732C164.855 80.0016 158.241 75.5821 150.961 72.5668C143.682 69.5516 135.879 67.9998 128 68V68ZM130.054 78.8124C130.979 78.7818 131.904 78.7818 132.829 78.8124C138.727 78.9964 146.289 80.4015 148.878 84.3324C151.017 87.5789 148.202 90.9025 146.633 93.5404C142.748 100.07 139.326 107.15 135.561 113.82C134.539 115.633 130.751 121.853 128.296 118.748C123.072 112.142 121.536 98.3033 120.759 90.1731C120.511 87.5804 119.654 83.5425 120.882 81.1251C121.94 79.0436 125.724 79.2247 127.735 78.9847C128.505 78.8959 129.279 78.8382 130.054 78.8116V78.8124ZM108.596 83.0371C109.685 83.1033 110.733 83.4451 111.687 84.1593C115.103 86.7207 116.099 92.1258 117.2 95.9156C118.628 100.832 120.582 105.309 121.53 110.404C121.948 112.647 124.65 118.181 121.598 119.55C119.392 120.54 116.013 118.08 114.079 117.231C107.291 114.25 100.286 109.655 94.4349 105.074C85.176 97.8269 92.3222 91.8713 99.3324 86.7935C101.715 85.0669 105.33 82.8371 108.596 83.0371V83.0371ZM158.641 89.2538C164.244 88.704 167.78 94.7665 170.718 98.5055C172.921 101.311 176.841 107.881 174.727 111.464C173.328 113.833 170.131 114.289 167.788 115.165C161.698 117.441 155.499 119.809 149.106 121.252C146.607 121.816 136.473 125.443 134.76 123.164C133.921 122.049 135.217 119.946 135.728 118.921C137.708 114.952 140.652 111.899 142.969 108.207C146.167 103.111 150.071 98.7244 153.695 93.9847C155.101 92.1455 155.994 89.5135 158.641 89.2538V89.2538ZM86.2255 110.262C94.3062 109.939 104.324 116.13 110.94 119.587C113.348 120.845 116.625 121.649 118.564 123.646C121.757 126.937 116.324 129.136 113.796 129.628C105.647 131.215 97.4102 132.137 89.2538 133.612C86.6058 134.092 81.3978 135.236 79.2749 132.94C73.9811 127.217 76.4647 111.705 84.6342 110.416C85.1612 110.334 85.6925 110.282 86.2255 110.261V110.262ZM173.364 121.61C174.103 121.64 174.805 121.78 175.436 122.073C182.684 125.432 179.399 142.935 172.389 144.887C167.601 146.221 161.889 143.32 157.642 141.384C152.151 138.881 146.393 137.279 141.143 134.205C139.564 133.279 135.898 131.102 137.177 128.863C138.617 126.345 143.215 126.143 145.658 125.613C152.58 124.113 159.593 123.474 166.635 122.585C168.599 122.337 171.148 121.513 173.364 121.61ZM115.399 132.299C116.945 132.222 118.3 132.392 119.266 132.947C122.922 135.044 118.132 140.545 116.923 142.735C113.055 149.74 107.981 157.079 103.082 163.397C101.19 165.837 98.6335 168.665 95.1876 166.863C89.7207 164.005 85.2953 156.463 82.9876 151.012C82.1047 148.926 80.7891 145.957 82.352 143.895C86.0095 139.07 96.1847 137.604 101.54 135.895C104.399 134.983 110.762 132.531 115.399 132.299V132.299ZM135.691 135.414C137.897 135.676 140.756 137.67 142.056 138.417C148.693 142.232 155.915 146.166 161.516 151.32C162.736 152.443 164.823 152.904 165.777 154.238C167.113 156.102 166.12 160.109 164.945 161.849C161.968 166.255 148.348 176.154 143.753 170.231C138.25 163.14 136.577 153.256 134.544 144.678C134.075 142.7 131.751 137.476 133.785 135.839C134.292 135.431 134.956 135.327 135.691 135.413V135.414ZM126.31 137.369C126.523 137.332 126.741 137.34 126.951 137.388C128.56 137.766 129.232 140.203 129.844 141.484C131.928 145.847 132.94 150.215 133.872 154.973C134.829 159.865 138.548 169.849 135.82 174.476C133.345 178.676 121.652 177.028 117.756 176.104C114.586 175.353 109.419 174.764 107.597 171.694C106.185 169.313 108.036 166.949 109.089 164.872C111.697 159.729 114.585 154.799 117.237 149.668C118.402 147.415 122.987 137.903 126.31 137.37V137.369Z" fill="url(#paint2_linear)"/>
<path opacity="0.25" d="M155.608 17V61.2306C155.608 70.141 162.867 77.1605 171.777 77.1605L216.009 77.1493V75.1493L155.608 17Z" fill="#282828"/>
<path d="M155.608 15V59.2306C155.608 68.141 162.867 75.1605 171.777 75.1605L216.009 75.1493L155.608 15Z" fill="url(#paint3_linear)"/>
<defs>
<filter id="filter0_f" x="23.8778" y="0.441412" width="207.255" height="255.418" filterUnits="userSpaceOnUse" color-interpolation-filters="sRGB">
<feFlood flood-opacity="0" result="BackgroundImageFix"/>
<feBlend mode="normal" in="SourceGraphic" in2="BackgroundImageFix" result="shape"/>
<feGaussianBlur stdDeviation="7.5611" result="effect1_foregroundBlur"/>
</filter>
<linearGradient id="paint0_linear" x1="139.896" y1="15" x2="142.761" y2="242.412" gradientUnits="userSpaceOnUse">
<stop stop-color="#fabd2f"/>
<stop offset="1" stop-color="#d79921"/>
</linearGradient>
<linearGradient id="paint1_linear" x1="139.896" y1="15" x2="142.761" y2="242.412" gradientUnits="userSpaceOnUse">
<stop stop-color="#fabd2f"/>
<stop offset="1" stop-color="#d79921"/>
</linearGradient>
<linearGradient id="paint2_linear" x1="136.4" y1="68" x2="137.6" y2="189.2" gradientUnits="userSpaceOnUse">
<stop stop-color="#fabd2f"/>
<stop offset="1" stop-color="#d79921"/>
</linearGradient>
<linearGradient id="paint3_linear" x1="190.036" y1="15" x2="190.636" y2="75.7622" gradientUnits="userSpaceOnUse">
<stop stop-color="#fabd2f"/>
<stop offset="1" stop-color="#d79921"/>
</linearGradient>
</defs>
</svg>

<svg width="256" height="256" fill="none" version="1.1" viewBox="0 0 256 256" xmlns="http://www.w3.org/2000/svg">
  <path d="m55.08 15h100.5l60.4 60.15 2e-3 148.9c0 8.911-7.262 16.13-16.17 16.13h-144.8c-8.91 0-16.08-7.174-16.08-16.08v-193c0-8.91 7.173-16.08 16.08-16.08h1e-4z" fill="#ebdbb2"/>
  <path d="m55.08 15h100.5l60.4 60.15 2e-3 148.9c0 8.911-7.262 16.13-16.17 16.13h-144.8c-8.91 0-16.08-7.174-16.08-16.08v-193c0-8.91 7.173-16.08 16.08-16.08h1e-4z" fill="url(#paint0_linear)" opacity=".2"/>
  <path d="m155.6 22.98h-100.5c-4.504 0-8.105 3.601-8.105 8.105v193c0 4.504 3.601 8.105 8.105 8.105h144.8c4.533 0 8.194-3.674 8.194-8.149v-148.9l-52.42-52.17zm-1e-3 -7.979h-100.5c-8.91 0-16.08 7.173-16.08 16.08v193c0 8.91 7.173 16.08 16.08 16.08h144.8c8.911 0 16.17-7.218 16.17-16.13l-2e-3 -148.9-60.4-60.15z" clip-rule="evenodd" fill="url(#paint0_linear)" fill-rule="evenodd"/>
  <path d="m128 68c-33.14 0-60 26.86-60 60 0 33.14 26.86 60 60 60 33.14 0 60-26.86 60-60 0-7.879-1.552-15.68-4.567-22.96-3.015-7.28-7.435-13.89-13.01-19.47-5.572-5.572-12.19-9.991-19.47-13.01-7.279-3.015-15.08-4.567-22.96-4.567zm2.054 10.81c0.925-0.0306 1.85-0.0306 2.775 0 5.898 0.184 13.46 1.589 16.05 5.52 2.139 3.246-0.676 6.57-2.245 9.208-3.885 6.53-7.307 13.61-11.07 20.28-1.022 1.813-4.81 8.033-7.265 4.928-5.224-6.606-6.76-20.44-7.537-28.57-0.248-2.593-1.105-6.631 0.123-9.048 1.058-2.082 4.842-1.9 6.853-2.14 0.77-0.0888 1.544-0.1465 2.319-0.1731v8e-4zm-21.46 4.225c1.089 0.0662 2.137 0.408 3.091 1.122 3.416 2.561 4.412 7.966 5.513 11.76 1.428 4.916 3.382 9.393 4.33 14.49 0.418 2.243 3.12 7.777 0.068 9.146-2.206 0.99-5.585-1.47-7.519-2.319-6.788-2.981-13.79-7.576-19.64-12.16-9.259-7.247-2.113-13.2 4.898-18.28 2.383-1.727 5.998-3.956 9.264-3.756zm50.04 6.217c5.603-0.5498 9.139 5.513 12.08 9.252 2.203 2.806 6.123 9.376 4.009 12.96-1.399 2.369-4.596 2.825-6.939 3.701-6.09 2.276-12.29 4.644-18.68 6.087-2.499 0.564-12.63 4.191-14.35 1.912-0.839-1.115 0.457-3.218 0.968-4.243 1.98-3.969 4.924-7.022 7.241-10.71 3.198-5.096 7.102-9.483 10.73-14.22 1.406-1.839 2.299-4.471 4.946-4.731zm-72.42 21.01c8.081-0.323 18.1 5.868 24.71 9.325 2.408 1.258 5.685 2.062 7.624 4.059 3.193 3.291-2.24 5.49-4.768 5.982-8.149 1.587-16.39 2.509-24.54 3.984-2.648 0.48-7.856 1.624-9.979-0.672-5.294-5.723-2.81-21.24 5.359-22.52 0.527-0.082 1.058-0.134 1.591-0.155v1e-3zm87.14 11.35c0.739 0.03 1.441 0.17 2.072 0.463 7.248 3.359 3.963 20.86-3.047 22.81-4.788 1.334-10.5-1.567-14.75-3.503-5.491-2.503-11.25-4.105-16.5-7.179-1.579-0.926-5.245-3.103-3.966-5.342 1.44-2.518 6.038-2.72 8.481-3.25 6.922-1.5 13.94-2.139 20.98-3.028 1.964-0.248 4.513-1.072 6.729-0.975zm-57.96 10.69c1.546-0.077 2.901 0.093 3.867 0.648 3.656 2.097-1.134 7.598-2.343 9.788-3.868 7.005-8.942 14.34-13.84 20.66-1.892 2.44-4.448 5.268-7.894 3.466-5.467-2.858-9.892-10.4-12.2-15.85-0.8829-2.086-2.198-5.055-0.6356-7.117 3.658-4.825 13.83-6.291 19.19-8 2.859-0.912 9.222-3.364 13.86-3.596zm20.29 3.115c2.206 0.262 5.065 2.256 6.365 3.003 6.637 3.815 13.86 7.749 19.46 12.9 1.22 1.123 3.307 1.584 4.261 2.918 1.336 1.864 0.343 5.871-0.832 7.611-2.977 4.406-16.6 14.3-21.19 8.382-5.503-7.091-7.176-16.98-9.209-25.55-0.469-1.978-2.793-7.202-0.759-8.839 0.507-0.408 1.171-0.512 1.906-0.426v1e-3zm-9.381 1.955c0.213-0.037 0.431-0.029 0.641 0.019 1.609 0.378 2.281 2.815 2.893 4.096 2.084 4.363 3.096 8.731 4.028 13.49 0.957 4.892 4.676 14.88 1.948 19.5-2.475 4.2-14.17 2.552-18.06 1.628-3.17-0.751-8.337-1.34-10.16-4.41-1.412-2.381 0.439-4.745 1.492-6.822 2.608-5.143 5.496-10.07 8.148-15.2 1.165-2.253 5.75-11.76 9.073-12.3v-1e-3z" fill="url(#paint2_linear)"/>
  <path d="m155.6 17v44.23c0 8.91 7.259 15.93 16.17 15.93l44.23-0.0112v-2l-60.4-58.15z" fill="#282828" opacity=".25"/>
  <path d="m155.6 15v44.23c0 8.91 7.259 15.93 16.17 15.93l44.23-0.0112-60.4-60.15z" fill="url(#paint3_linear)"/>
  <defs>
    <linearGradient id="paint0_linear" x1="139.9" x2="142.8" y1="15" y2="242.4" gradientUnits="userSpaceOnUse">
      <stop stop-color="#fabd2f" offset="0"/>
      <stop stop-color="#d79921" offset="1"/>
    </linearGradient>
    <linearGradient id="paint2_linear" x1="136.4" x2="137.6" y1="68" y2="189.2" gradientUnits="userSpaceOnUse">
      <stop stop-color="#fabd2f" offset="0"/>
      <stop stop-color="#d79921" offset="1"/>
    </linearGradient>
    <linearGradient id="paint3_linear" x1="190" x2="190.6" y1="15" y2="75.76" gradientUnits="userSpaceOnUse">
      <stop stop-color="#fabd2f" offset="0"/>
      <stop stop-color="#d79921" offset="1"/>
    </linearGradient>
  </defs>
</svg>
